X: 41847
T: Violet Hill
R: reel
M: 4/4
K: Dmajor
|:DEFG ABcA|d2ed dcAF|G3A GFED|cDEF GEFE|
DEFG ABcA|d2ed dcAF|GBed cAGE|1 cDEC D2 (3ABc:|2 cDEc D2 (3FGA||
|:d2ed dcAB|c3d cAFA|d2ed dcAE|cDEF GABc|
d2ed dcAB|c3d cAFA|GBed cAGE|1 cDEc D2 (3FGA:|2 CDEC D2 (3ABC||

